src/icons/fingerprint.svg

<svg viewBox="0 0 48 48" fill="none" xmlns="http://www.w3.org/2000/svg">
<path d="M6.09139 30.2431C6.61783 30.0769 6.87198 29.5232 6.72676 28.8958C6.27292 27.0318 6.00063 25.0572 6.09139 22.4735C6.10954 21.7907 5.74647 21.4215 5.20188 21.3847C4.49391 21.3292 4.11269 21.7722 4.05823 22.3442C3.89485 24.4298 4.05823 26.9211 4.7662 29.4864C4.94774 30.1138 5.52864 30.4275 6.09139 30.2431ZM5.29265 19.2438C5.81909 19.4468 6.49076 19.2069 6.7449 18.5056C9.66756 10.2009 16.6565 6.06696 23.7544 6.06696C26.9858 6.06696 29.5272 6.73135 31.6874 7.98628C32.3047 8.35537 32.9945 8.35537 33.2668 7.74637C33.5572 7.10044 33.2304 6.69443 32.7767 6.39915C30.0173 4.64592 27.2217 4 23.7544 4C15.5492 4 8.10639 8.44766 4.7662 17.4906C4.42129 18.4133 4.7662 19.0593 5.29265 19.2438ZM43.0514 25.943C43.6323 25.943 44.0497 25.4632 43.9952 24.8173C43.1784 17.3061 40.7459 12.5631 36.5525 8.83521C36.026 8.35537 35.3907 8.50303 35.082 8.87212C34.7372 9.25967 34.7008 9.86869 35.2454 10.367C38.8216 13.7627 41.4176 18.155 42.0347 24.8542C42.1074 25.4632 42.4705 25.943 43.0514 25.943ZM8.19715 35.595C8.54207 36.0748 9.23189 36.2039 9.74018 35.7611C11.0472 34.6353 11.7007 32.8267 11.7007 30.9443C11.7007 28.3975 10.6115 27.1057 10.6115 23.9313C10.6115 16.697 16.5295 10.6807 23.6455 10.6807C32.232 10.6807 37.7687 17.8228 37.7868 28.3607C37.7868 32.476 37.1152 35.392 36.4435 37.0714C36.2076 37.6435 36.4254 38.2525 36.8974 38.5109C37.4056 38.7323 38.1137 38.5478 38.3315 37.9388C39.0394 35.9825 39.82 32.7713 39.82 28.3421C39.82 16.5863 33.4482 8.61375 23.6455 8.61375C15.404 8.61375 8.57838 15.5713 8.57838 23.9313C8.57838 26.958 9.70387 29.0065 9.72203 30.9259C9.72203 32.1807 9.2682 33.3803 8.415 34.137C7.97932 34.5061 7.9067 35.1705 8.19715 35.595ZM12.4813 39.0276C13.8247 38.3263 15.6581 35.9271 16.1664 34.0263C16.3116 33.5096 16.0756 32.882 15.5129 32.6976C15.0046 32.513 14.46 32.8267 14.2603 33.4173C13.7702 35.0413 12.917 36.2594 11.5737 37.1821C10.9201 37.6435 10.8294 38.2156 11.0291 38.64C11.2469 39.1015 11.8278 39.3597 12.4813 39.0276ZM16.3661 29.0249C15.9123 27.7701 15.168 26.1828 15.168 24.0422C15.168 19.1331 18.9257 15.3129 23.7544 15.3129C25.606 15.3129 26.1869 15.5159 27.8026 16.3095C28.3654 16.5679 28.8736 16.4018 29.0733 15.9958C29.3456 15.479 29.2005 14.8515 28.5832 14.4824C27.3851 13.7627 25.5516 13.2275 23.7544 13.2275C17.8002 13.2275 13.1167 17.9889 13.1167 24.0422C13.1167 26.3674 13.7339 28.2498 14.3692 29.8185C14.6234 30.4275 15.168 30.7229 15.8215 30.4461C16.3661 30.2245 16.5658 29.6339 16.3661 29.0249ZM30.6527 18.7825C32.4136 21.3847 33.2849 24.9833 33.2849 29.3386C33.2849 33.9894 32.0142 38.3816 30.0354 40.8916C29.7087 41.3344 29.6723 41.962 30.0718 42.368C30.5074 42.774 31.2518 42.7555 31.6149 42.2573C33.8294 39.2122 35.2817 34.377 35.2817 29.2649C35.2817 23.673 34.1017 20.3511 32.4498 17.6751C32.0686 17.0846 31.4333 16.9001 30.9249 17.1769C30.3985 17.4722 30.2351 18.155 30.6527 18.7825ZM16.2935 41.4637C19.2706 39.0276 20.9044 35.152 20.8863 30.8521C20.8682 27.604 19.7245 25.5923 19.7245 23.8206C19.7245 21.4954 21.34 19.9451 23.7 19.9451C27.3306 19.9451 28.5105 24.1529 28.6196 29.1357C28.7828 34.8937 26.7316 39.7657 24.0449 42.165C23.6093 42.5341 23.5185 43.1061 23.8089 43.5675C24.1538 44.0658 24.8618 44.1581 25.3338 43.7152C28.1657 41.0946 30.562 35.3365 30.5256 28.9881C30.5074 22.7872 28.7829 17.8782 23.7 17.8782C20.3235 17.8782 17.7276 20.1665 17.7276 23.6362C17.7276 25.7216 18.8168 28.2868 18.8349 30.8521C18.8531 34.5061 17.5097 37.7911 15.0228 39.8396C14.5326 40.2456 14.46 40.8361 14.7686 41.2976C15.1498 41.8327 15.8034 41.8881 16.2935 41.4637ZM20.5413 42.9401C21.9754 41.8881 23.7544 39.4704 24.4442 37.1082C24.5714 36.7022 24.4806 36.0194 23.8997 35.8164C23.2824 35.595 22.756 35.9087 22.5926 36.3885C21.6669 38.8615 20.5232 40.3194 19.3069 41.2791C18.8531 41.6481 18.726 42.2573 19.0346 42.7371C19.3251 43.2538 20.0331 43.3277 20.5413 42.9401ZM25.479 32.8083C25.9872 30.3168 25.7876 27.1241 24.8981 24.3559C24.6622 23.673 24.1356 23.3778 23.5729 23.5623C23.0465 23.7469 22.7198 24.2452 22.9195 24.891C23.7544 27.567 23.8997 30.2061 23.4822 32.5314C23.3732 33.0852 23.5911 33.6203 24.2264 33.7126C24.8073 33.8233 25.352 33.4726 25.479 32.8083Z" fill="currentColor"/>
</svg>

<svg viewBox="0 0 48 48" fill="none" xmlns="http://www.w3.org/2000/svg"><path d="M6.091 30.243c.527-.166.781-.72.636-1.347-.454-1.864-.726-3.839-.636-6.422.019-.683-.345-1.052-.89-1.09-.707-.055-1.088.388-1.143.96-.163 2.086 0 4.577.708 7.142.182.628.763.941 1.325.757zm-.798-11c.526.204 1.198-.036 1.452-.737C9.668 10.2 16.657 6.067 23.755 6.067c3.23 0 5.772.664 7.932 1.92.618.368 1.308.368 1.58-.24.29-.647-.037-1.053-.49-1.348C30.017 4.646 27.222 4 23.754 4 15.55 4 8.106 8.448 4.766 17.49c-.345.923 0 1.57.527 1.754zm37.758 6.7c.581 0 .999-.48.944-1.126-.817-7.51-3.25-12.254-7.442-15.982-.527-.48-1.162-.332-1.471.037-.345.388-.381.997.163 1.495 3.577 3.396 6.173 7.788 6.79 14.487.072.61.436 1.089 1.016 1.089zM8.197 35.595c.345.48 1.035.609 1.543.166 1.307-1.126 1.96-2.934 1.96-4.817 0-2.546-1.088-3.838-1.088-7.013 0-7.234 5.917-13.25 13.033-13.25 8.587 0 14.124 7.142 14.142 17.68 0 4.115-.672 7.031-1.343 8.71-.236.573-.019 1.181.453 1.44.509.221 1.217.037 1.434-.572.708-1.956 1.489-5.168 1.489-9.597 0-11.756-6.372-19.728-16.175-19.728-8.241 0-15.067 6.957-15.067 15.317 0 3.027 1.126 5.075 1.144 6.995 0 1.255-.454 2.454-1.307 3.211-.436.37-.508 1.033-.218 1.458zm4.284 3.433c1.344-.702 3.177-3.1 3.685-5.002.146-.516-.09-1.144-.653-1.328-.508-.185-1.053.129-1.253.72-.49 1.623-1.343 2.841-2.686 3.764-.654.462-.745 1.034-.545 1.458.218.462.799.72 1.452.388zm3.885-10.003c-.454-1.255-1.198-2.842-1.198-4.983 0-4.909 3.758-8.73 8.586-8.73 1.852 0 2.433.204 4.049.998.562.258 1.07.092 1.27-.314.273-.517.128-1.145-.49-1.514-1.198-.72-3.031-1.255-4.829-1.255-5.954 0-10.637 4.762-10.637 10.815 0 2.325.617 4.208 1.252 5.776.254.61.799.905 1.453.628.544-.222.744-.812.544-1.421zm14.287-10.242c1.76 2.602 2.632 6.2 2.632 10.556 0 4.65-1.27 9.043-3.25 11.553-.326.442-.363 1.07.037 1.476.435.406 1.18.387 1.543-.11 2.214-3.046 3.667-7.881 3.667-12.993 0-5.592-1.18-8.914-2.832-11.59-.381-.59-1.017-.775-1.525-.498-.527.295-.69.978-.272 1.605zm-14.36 22.68c2.978-2.435 4.611-6.311 4.593-10.61-.018-3.249-1.162-5.26-1.162-7.032 0-2.326 1.616-3.876 3.976-3.876 3.63 0 4.81 4.208 4.92 9.19.163 5.759-1.888 10.63-4.575 13.03-.436.37-.527.941-.236 1.403.345.498 1.053.59 1.525.147 2.832-2.62 5.228-8.379 5.192-14.727-.019-6.2-1.743-11.11-6.826-11.11-3.377 0-5.972 2.288-5.972 5.758 0 2.086 1.089 4.65 1.107 7.216.018 3.654-1.325 6.94-3.812 8.988-.49.406-.563.996-.254 1.458.38.535 1.034.59 1.525.166zm4.248 1.477c1.434-1.052 3.213-3.47 3.903-5.832.127-.406.037-1.089-.544-1.292-.618-.221-1.144.093-1.307.572-.926 2.474-2.07 3.931-3.286 4.891-.454.37-.581.978-.272 1.458.29.517.998.59 1.506.203zm4.938-10.132c.508-2.491.309-5.684-.58-8.452-.237-.683-.763-.978-1.326-.794-.526.185-.853.683-.654 1.329.835 2.676.98 5.315.563 7.64-.109.554.11 1.09.744 1.182.581.11 1.126-.24 1.253-.905z" fill="currentColor"/></svg>
